X: 3
T: The Green Fields Of Woodford
R: jig
M: 6/8
L: 1/8
K: Edor
|:e|ecB A2E|FEF ABc|fec ecB|cff faf|
ecB A2E|FEF ABc|BAF B2c|AFE E2:|
|:B|cAA eAA|fec ecB|cAA eAA|fec BAB|
cBc efa|baf ecA|BAF B2c|AFE E2:|


Tune 4070	Setting 16874

